!!!COM:	Tinctoris, Johannes
!!!CDT:	~1435///-1511//
!!!OPR:	Missa L'homme arm&eacute;
!!!ONM:	3
!!!OTL:	Credo
!!!AGN:	Mass; Credo
!!!SCT:	Tin1001c
!!!SCA:	Tin1001c
!!!voices:	4
!!!voices-OPR:	4
**kern	**kern	**kern	**kern
*staff4	*staff3	*staff2	*staff1
*Ivox	*Ivox	*Ivox	*Ivox
*I"Bassus	*I"Tenor	*I"Altus	*I"Discantus
*I'B	*I'T	*I'A	*I'D
*>[A,B,C,D]	*>[A,B,C,D]	*>[A,B,C,D]	*>[A,B,C,D]
*>A	*>A	*>A	*>A
*clefF4	*clefGv2	*clefGv2	*clefG2
*k[b-]	*k[b-]	*k[b-]	*k[b-]
*M3/1	*M3/1	*M3/1	*M3/1
*met(O)	*met(O)	*met(O)	*met(O)
!!section: Patrem
!!!OMD: Patrem
!!incipit: 3
=1-	=1-	=1-	=1-
0G	0.r	1.d	0.r
.	.	2.g\	.
1A	.	.	.
.	.	8f\L	.
.	.	8e\J	.
.	.	2f\	.
=2	=2	=2	=2
2G\	0G	1.g	0.r
2.E\	.	.	.
4D\	.	.	.
2.C/	.	2.e\	.
.	1c	.	.
4D\	.	4f\	.
4C/	.	4e\	.
8BB-/L	.	8d\L	.
8AA/J	.	8c\J	.
=3	=3	=3	=3
1GG	2.B-\	2d\	0.g
.	.	1G	.
.	4A/	.	.
1.C	4G/	.	.
.	4F/	.	.
.	1E	1c	.
2BB-/	2D/	2d\	.
=4	=4	=4	=4
0AA	1E	2.c\	0cc
.	.	4d\	.
.	1C	2e\	.
.	.	2f\	.
2GG/	2D/	1g	2.b-\
2G\	2E-/	.	.
.	.	.	8a/L
.	.	.	8g/J
=5	=5	=5	=5
2.F\	2D/	1r	1a
.	1d	.	.
8E\L	.	.	.
8D\J	.	.	.
1E	.	1G	2g/
.	2c\	.	2e/
2.D\	[1d	[1A	2.f/
4E\	.	.	4g/
=6	=6	=6	=6
2F\	1d]	2A/]	2a/
2.G\	.	2G/	2.b-\
.	0d	2.B-\	.
4F\	.	.	4a/
2G\	.	.	1g
.	.	4c\	.
1D	.	1A	.
.	.	.	2f#i/
=7	=7	=7	=7
1GG	1d	2r	1g
.	.	2d\	.
2.C/	0G	2.e-i\	2r
.	.	.	2.g/
4D\	.	4d\	.
1E	.	4c\	.
.	.	4B-\	4f/
.	.	2c\	4e/
.	.	.	8d/L
.	.	.	8e/J
=8	=8	=8	=8
0.D	0d	2r	2.f/
.	.	4.d\	.
.	.	.	2d/
.	.	8e\	.
.	.	0f	.
.	.	.	4c/
.	.	.	4B-/
.	.	.	8A/L
.	.	.	8G/J
.	1d	.	1A
=9	=9	=9	=9
0E	0c	2.g\	0.G
.	.	2e\	.
.	.	4d\	.
.	.	4c\	.
.	.	4B-\	.
1F	1c	2.A/	.
.	.	8G/L	.
.	.	8A/J	.
=10	=10	=10	=10
2G\	2B-\	2B-\	1r
2.B-\	4G/	2.d\	.
.	4A/	.	.
.	4B-\	.	1g
4A\	4c\	4c\	.
2G\	2d\	4B-\	.
.	.	8A/L	.
.	.	8B-/J	.
2.F#i\	2A/	8c/L	1a
.	.	8B-/	.
.	.	8A/	.
.	.	8G/J	.
.	2c\	2A/	.
8E\L	.	.	.
8F#i\J	.	.	.
=11	=11	=11	=11
1G	2B-\	2G/	0b-
.	2G/	4r	.
.	.	2g\	.
1r	1G	.	.
.	.	8f\L	.
.	.	8e\J	.
.	.	2d\	.
1C	1r	2.e\	2.cc\
.	.	4f\	8b-/L
.	.	.	8a/J
=12	=12	=12	=12
2GG/	0G	2g\	2b-\
1.C	.	2.e\	2.g/
.	.	4d\	4f/
.	.	4c\	2e/
.	.	8B-\L	.
.	.	8c\J	.
2GG/	1G	4d\	1d
.	.	2Bni\	.
2G\	.	.	.
.	.	4A/	.
=13	=13	=13	=13
2r	2.A/	2.c\	0c
2.F\	.	.	.
.	4G/	4B-\	.
.	2F/	4A/	.
4E\	.	8G/L	.
.	.	8F/J	.
2C/	1c	2E/	.
1D	.	2.F/	1r
.	2Bni\	.	.
.	.	8E/L	.
.	.	8F/J	.
=14	=14	=14	=14
0.C	0c	1G	2e/
.	.	.	2.g/
.	.	2r	.
.	.	.	4f/
.	.	2.g\	2.e/
.	1G	.	.
.	.	4a\	4f/
.	.	4g\	4e/
.	.	8f\L	8d/L
.	.	8e\J	8c/J
=15	=15	=15	=15
2r	2r	2d\	4B-/
.	.	.	4c/
2GG/	1G	4B-\	2.d/
.	.	4c\	.
2BB-/	.	2d\	.
.	.	.	4c/
2C/	2G/	2e-i\	1c
1GG	2G/	1d	.
.	2G/	.	2Bni/
=16	=16	=16	=16
2r	4C/	1c	2.c/
.	4D/	.	.
2.C/	4E/	.	.
.	4F/	.	4d/
.	2.G/	1r	4e/
4AA/	.	.	4f/
2BB-/	.	.	2d/
.	4A/	.	.
2GG/	4B-\	1r	2.g/
.	4c\	.	.
[2G\	2d\	.	.
.	.	.	4a/
=17	=17	=17	=17
4G\]	2G/	0.r	4b-\
4E\	.	.	4cc\
4F\	2A/	.	2.a/
4D\	.	.	.
2G\	2B-\	.	.
.	.	.	4g/
2B-\	2G/	.	1g
1A	1D	.	.
.	.	.	2f#i/
=18	=18	=18	=18
2r	2.E/	1r	0.g
1G	.	.	.
.	4F/	.	.
.	1G	1g	.
2.E\	.	.	.
.	1r	2.e\	.
4F\	.	.	.
2G\	.	.	.
.	.	4f\	.
=19	=19	=19	=19
2C/	0.r	4.g\	0.r
.	.	8f\	.
2.G\	.	4d\	.
.	.	8c\L	.
.	.	8d\J	.
.	.	2e\	.
4F\	.	.	.
2E\	.	2.c\	.
1D	.	.	.
.	.	8Bni/L	.
.	.	8A/J	.
.	.	2Bni\	.
=20	=20	=20	=20
0C	2r	1c	1g
.	2.C/	.	.
.	.	2r	2g/
.	4D/	.	.
.	4E/	2.G/	2.g/
.	4F/	.	.
2.GG/	2.G/	.	.
.	.	4A/	4f/
.	.	4B-\	[2d/
4AA/	4F/	4c\	.
=21	=21	=21	=21
4BB-/	2.D/	2.d\	4d/]
4C/	.	.	4e/
1D	.	.	4f/
.	4E/	8c\L	4g/
.	.	8B-\J	.
.	2F/	2A/	2a/
2GG/	4D/	2G/	2b-\
.	4E/	.	.
4D\	4F/	1A	1a
4E\	4G/	.	.
2F\	2A/	.	.
=22	=22	=22	=22
2G\	2B-\	2G/	2r
2E\	2.G/	4.c\	2g/
.	.	8B-\	.
2.D\	.	1d	2.a/
.	4F/	.	.
.	2.F/	.	.
8C/L	.	.	4b-\
8BB-/J	.	.	.
1AA	.	2c\	1cc
.	4E/	.	.
.	2C/	2A/	.
=23	=23	=23	=23
[0.GG	1D	2.B-\	2b-\
.	.	.	2.g/
.	.	4c\	.
.	2.G/	2d\	.
.	.	.	4f/
.	.	4e\	4e/
.	4A/	4f\	4d/
.	2B-\	1g	1d
.	[2G/	.	.
=24	=24	=24	=24
0.GG]	2G/]	2.g\	2e/
.	2.B-\	.	1d
.	.	8f\L	.
.	.	8e\J	.
.	.	1d	.
.	4A/	.	.
.	1G	.	2.g/
.	.	1d	.
.	.	.	4a/
.	2G/	.	2b-\
=25	=25	=25	=25
0.r	1A	2.c\	2a/
.	.	.	2.cc\
.	.	4B-\	.
.	1F	4A/	.
.	.	4G/	4b-\
.	.	2.c\	1a
.	1G	.	.
.	.	8B-/L	.
.	.	8A/J	.
.	.	2B-\	2g/
=26	=26	=26	=26
2D\	2F/	2.A/	1a
1F	1A	.	.
.	.	4B-\	.
.	.	4c\	1r
.	.	4d\	.
2E\	2G/	2.c\	.
1D	1F	.	1r
.	.	4Bni\	.
.	.	4Bni\	.
.	.	4A/	.
=27	=27	=27	=27
2E\	2G/	2c\	1g
2.G\	2C/	2r	.
.	0C	2.e\	2g/
4F\	.	.	.
2G\	.	.	2.e/
.	.	4f\	.
2E\	.	2g\	.
.	.	.	4f/
2C/	.	2e\	[2g/
=28	=28	=28	=28
0GG	1r	0d	4g/]
.	.	.	4f/
.	.	.	2d/
.	1.G	.	2.g/
.	.	.	4a/
1GG	.	1d	2b-\
.	2G/	.	2b-\
=29	=29	=29	=29
1C	1.G	0.c	2.cc\
.	.	.	4b-\
1r	.	.	2g/
.	4A/	.	2a/
.	4B-\	.	.
1r	2c\	.	4g/
.	.	.	4f/
.	2F/	.	4e/
.	.	.	4d/
=30	=30	=30	=30
1AA	2.E/	1r	1e
.	8F/L	.	.
.	8G/J	.	.
1.A	1A	1F	0d
.	1D	2.F/	.
2A\	.	.	.
.	.	8E/L	.
.	.	8F/J	.
=31	=31	=31	=31
2.G\	2E/	1G	1r
.	1G	.	.
8F\L	.	.	.
8E\J	.	.	.
0D	.	2.A/	0a
.	4F#i/	.	.
.	4E/	4G/	.
.	1F#i	1A	.
=32	=32	=32	=32
2.GG/	0G	1G	1b-
4AA/	.	.	.
2BB-/	.	1r	2b-\
2C/	.	.	2.g/
2GG/	1r	1r	.
.	.	.	4f/
[2C/	.	.	4e/
.	.	.	4d/
=33	=33	=33	=33
4C/]	2.G/	0.r	2.g/
4BB-/	.	.	.
2GG/	.	.	.
.	4A/	.	4f/
2r	2B-\	.	2d/
4C/	2c\	.	2.G/
4D\	.	.	.
4E\	2.G/	.	.
4F\	.	.	4A/
[2G\	.	.	4B-/
.	4A/	.	4c/
=34	=34	=34	=34
4G\]	1B-	0.r	2.d/
4F\	.	.	.
1D	.	.	.
.	.	.	4e/
.	2A/	.	2f/
2F\	1A	.	2.d/
1E	.	.	.
.	.	.	4c#i/
.	2G/	.	4c#i/
.	.	.	4Bni/
=35	=35	=35	=35
2D\	1A	0.r	1d
4F\	.	.	.
4G\	.	.	.
2A\	2F/	.	2c/
4B-\	2G/	.	2B-/
2G\	.	.	.
.	1D	.	1A
4F#i\	.	.	.
4F#i\	.	.	.
4E\	.	.	.
=36	=36	=36	=36
1G	1r	2G/	2r
.	.	2.B-\	2G/
0GG	1G	.	2.B-/
.	.	4c\	.
.	.	2d\	.
.	.	.	4c/
.	2B-\	2G/	2d/
.	2B-\	2d\	2G/
=37	=37	=37	=37
1C	1c	2.e-i\	2r
.	.	.	2.g/
.	.	8d\L	.
.	.	8c\J	.
0GG	2.B-\	1d	.
.	.	.	4a/
.	.	.	2.b-\
.	4A/	.	.
.	4G/	1B-	.
.	4F/	.	4a/
.	2G/	.	4g/
.	.	.	8f/L
.	.	.	8g/J
=38	=38	=38	=38
2D\	1F	2A/	2a/
2.BB-/	.	4B-\	2.d/
.	.	2d\	.
.	2F/	.	.
4C/	.	4c\	4e/
2D\	2F/	4B-\	2f/
.	.	4A/	.
1C	2E/	4.c\	2g/
.	.	8d\	.
.	[2G/	4e\	2c/
.	.	4c\	.
=39	=39	=39	=39
0GG	2G/]	2d\	2r
.	2G/	2.B-\	2.d/
.	1G	.	.
.	.	4A/	4c/
.	.	2B-\	2d/
2.C/	2G/	4.c\	2e/
.	.	8d\	.
.	2G/	4e\	[2c/
4D\	.	4f\	.
=40	=40	=40	=40
4E\	0G	2g\	4c/]
4D\	.	.	4d/
2G\	.	2e\	4e/
.	.	.	4f/
2E\	.	2c\	2g/
2C/	.	2e\	2.cc\
1G	2r	1d	.
.	.	.	4bni\
.	[2G/	.	4bni\
.	.	.	4a/
=41	=41	=41	=41
0.C	4G/]	2c\	1cc
.	4F/	.	.
.	4E/	2r	.
.	4D/	.	.
.	2.E/	2.g\	2r
.	.	.	2.g/
.	4F/	4f\	.
.	2G/	4e\	.
.	.	4d\	4f/
.	2G/	[2e\	4e/
.	.	.	4d/
=42	=42	=42	=42
2G\	0C	4e\]	2.e/
.	.	4f\	.
2.E\	.	2g\	.
.	.	.	4f/
.	.	2g\	2g/
4D\	.	.	.
4C/	.	2.c\	2g/
4BB-/	.	.	.
1AA	2r	.	1c
.	.	4d\	.
.	2c\	4e\	.
.	.	4c\	.
=43	=43	=43	=43
2GG/	2B-\	2d\	0g
2.C/	2c\	2.e\	.
.	1G	.	.
4D\	.	4d\	.
2E\	.	4c\	.
.	.	4B-\	.
1F	1c	1A	1a
=44	=44	=44	=44
2.G\	2.B-\	4G/	2b-\
.	.	2B-\	.
.	.	.	4g/
4F\	4A/	4c\	2a/
2D\	2B-\	2d\	.
.	.	.	4g/
2E\	2c\	2G/	1g
1D	1d	1A	.
.	.	.	2f#i/
=45	=45	=45	=45
[0.GG	2r	1G	1g
.	2D/	.	.
.	2E/	1r	2r
.	2D/	.	1d
.	2.G/	1r	.
.	.	.	2e/
.	4A/	.	.
=46	=46	=46	=46
1GG]	1.B-	2d\	2d/
.	.	2e\	2.g/
2r	.	2d\	.
.	.	.	4f/
2.GG/	2G/	2.g\	2.d/
.	1G	.	.
4AA/	.	4f\	4c/
4BB-/	.	[2d\	2B-/
4C/	.	.	.
=47	=47	=47	=47
1D	1.F	4d\]	2.A/
.	.	8c\L	.
.	.	8B-\J	.
.	.	1A	.
.	.	.	4d/
2r	.	.	2c/
2D\	2F/	2A/	1d
1AA	1E	1A	.
.	.	.	2c#i/
=48	=48	=48	=48
2A\	1D	2F/	1.d
2.F\	.	2.A/	.
.	1F	.	.
4G\	.	4B-\	.
2A\	.	1c	4c/
.	.	.	4B-/
2.F\	1r	.	1A
.	.	2d\	.
4E\	.	.	.
=49	=49	=49	=49
2G\	2.d\	2B-\	2r
1GG	.	2G/	2.B-/
.	4d\	.	.
.	2d\	2.g\	.
.	.	.	4A/
2.C/	2c\	.	2G/
.	.	4f\	.
.	2c\	4e\	2g/
4BB-/	.	4d\	.
2GG/	2d\	[2d\	[2b-\
=50	=50	=50	=50
2.G\	1B-	2d\]	4b-\]
.	.	.	4a/
.	.	2e\	2g/
4F\	.	.	.
1D	1A	2f\	2a/
.	.	1d	2f/
1A	1r	.	1e
.	.	2c#i\	.
=51	=51	=51	=51
1D	0.r	1d	1d
1r	.	3%2.GV	3%2dV
.	.	.	3%2e
1r	.	3%2A	.
.	.	.	3%2fZ
.	.	[3B-\Z	.
=52	=52	=52	=52
0.r	0.r	3B-]\V	3%2gV
.	.	3%2cZ	.
.	.	.	3a/
.	.	3d\V	3b-\
.	.	3e\	3%2gZ
.	.	3%2c	.
.	.	.	3%2ccV
.	.	3%2dZ	.
.	.	.	3b-\Z
=53	=53	=53	=53
0.r	0.r	3c\V	3.cc\V
.	.	3%2AZ	.
.	.	.	6b-\
.	.	.	6a/
.	.	.	6g/
.	.	3G/V	3b-\
.	.	3c\	3.a/
.	.	3d\	.
.	.	.	6g/Z
.	.	3B-\	3%2gV
.	.	3%2AZ	.
.	.	.	3f#i/Z
=54	=54	=54	=54
1.GG	0G	1G	1g
.	.	2d\	1r
1GG	.	1g	.
.	1G	.	[1g
[2C/	.	[2e\	.
=55	=55	=55	=55
1C]	0c	4e\]	2g/]
.	.	4f\	.
.	.	2g\	2.cc\
2C/	.	2e\	.
.	.	.	4b-\
2.F\	.	4f\	2.a/
.	.	2a\	.
.	1c	.	.
4G\	.	4g\	4b-\
4A\	.	4e\	2a/
4F\	.	4f\	.
=56	=56	=56	=56
1G	1B-	2d\	4.g/
.	.	.	8f/
.	.	2g\	1d
1r	0A	2.f\	.
.	.	.	2c/
.	.	4.a\	.
1r	.	.	2.c/
.	.	8g\L	.
.	.	8f#i\	.
.	.	8e\J	.
.	.	2f#i\	.
.	.	.	8B-/L
.	.	.	8c/J
=57	=57	=57	=57
2r	[0.G	0g	1.d
2.d\	.	.	.
4c\	.	.	.
2d\	.	.	2.d/
2B-\	.	1r	.
.	.	.	4c/
2G\	.	.	2d/
=58	=58	=58	=58
2r	0.G]	2.d\	2B-/
2.B-\	.	.	1G
.	.	4c\	.
.	.	2d\	.
4G\	.	.	.
4.B-\	.	2B-\	2.g/
8c\	.	.	.
2d\	.	2G/	.
.	.	.	4f/
2B-\	.	2d\	2g/
=59	=59	=59	=59
4.A\	0.r	2r	2.a/
8G\	.	.	.
2A\	.	2c\	.
.	.	.	4g/
2F\	.	2.A/	2a/
4D\	.	.	2f/
4E\	.	4G/	.
4F\	.	4A/	4d/
4G\	.	4B-\	4e/
[2A\	.	[2c\	4f/
.	.	.	4g/
=60	=60	=60	=60
2A\]	1r	2c\]	2a/
2.G\	.	1d	2.b-\
.	1r	.	.
4E\	.	.	4a/
2F\	.	2c\	1a
1G	[1d	1B-	.
.	.	.	2g/
=61	=61	=61	=61
0.D	1d]	0.A	1a
.	0d	.	2r
.	.	.	2.f/
.	.	.	4e/
.	.	.	2f/
=62	=62	=62	=62
2E\	0.G	2r	2.g/
2.G\	.	2.B-\	.
.	.	.	4f/
.	.	.	4e/
4F\	.	4A/	4d/
4E\	.	2G/	2.e/
4D\	.	.	.
1E	.	2g\	.
.	.	.	2c#i/
.	.	2e\	.
.	.	.	4Bni/
=63	=63	=63	=63
2r	1r	1.f	1d
2D\	.	.	.
2.BB-/	0d	.	2r
.	.	2.d\	2.f/
4C/	.	.	.
2D\	.	.	.
.	.	4e\	4g/
[2D\	.	4f\	[2a/
.	.	4g\	.
=64	=64	=64	=64
4D\]	1d	2a\	2a/]
8E\L	.	.	.
8F\J	.	.	.
2G\	.	2g\	2b-\
0A	0c	4e\	2cc\
.	.	4.f\	.
.	.	.	2.a/
.	.	8g\	.
.	.	4.a\	.
.	.	8g\	.
.	.	4e\	4g/
.	.	2f\	2a/
=65	=65	=65	=65
1G	1B-	2g\	2b-\
.	.	2.d\	2g/
0D	0A	.	2.a/
.	.	4e\	.
.	.	4d\	.
.	.	8c\L	4.f/
.	.	8B-\J	.
.	.	2A/	.
.	.	.	8g/
.	.	.	4a/
.	.	[2d\	4f#i/
.	.	.	4e/
=66	=66	=66	=66
0.GGl	0.Gl	4d\]	0.gl
.	.	4c\	.
.	.	4B-\	.
.	.	4A/	.
.	.	2B-\	.
.	.	2G/	.
.	.	1B- 1dl	.
!!LO:LB:i:g=z
=67||	=67||	=67||	=67||
*>B	*>B	*>B	*>B
*clefF4	*clefGv2	*clefGv2	*clefG2
*k[b-]	*k[b-]	*k[b-]	*k[b-]
*M2/1	*M2/1	*M2/1	*M2/1
*met(C|)	*met(C|)	*met(C|)	*met(C|)
!!section: Et incarnatus est
!!!OMD: Et incarnatus est
1G	1.G	0d	1r
[1B-	.	.	[1g
.	2A/	.	.
=68	=68	=68	=68
!	!	!	!LO:TX:X=50:Z=60:t=absque mora primum ruit in dyatessaron ymum 
!	!	!	!LO:TX:X=50:Z=42:t=("Without delay the first rushes down to the lower fourth")
!	!	!	!LO:TX:X=50:Z=24:t=[Pre-imitation canon at the lower fourth, one semibreve]
2B-\]	2B-\	2d\	1g]
2A\	2c\	4e\	.
.	.	4f\	.
1G	1d	1g	2g/
.	.	.	4a/
.	.	.	4b-\
=69	=69	=69	=69
2C/	2c\	2g\	1cc
1F	1A	2.f\	.
.	.	.	2cc\
.	.	4e\	.
2G\	2B-\	[2d\	[2b-\
=70	=70	=70	=70
1E-	1G	2d\]	4b-\]
.	.	.	4a/
.	.	2c\	1g
1D	1A	1d	.
.	.	.	2f#i/
=71	=71	=71	=71
2r	1G	1r	1g
2G\	.	.	.
2.F\	2r	1a	1r
.	[2d\	.	.
4E\	.	.	.
=72	=72	=72	=72
1D	4d\]	2a\	1dd
.	4e\	.	.
.	2.f\	2a\	.
1D	.	1d	2dd\
.	4e\	.	.
.	4d\	.	2dd\
.	4c\	.	.
=73	=73	=73	=73
1G	2B-\	1d	1g
.	2G/	.	.
2G\	2.B-\	1d	1g
[2G\	.	.	.
.	4c\	.	.
=74	=74	=74	=74
4G\]	1d	1r	1g
4A\	.	.	.
2B-\	.	.	.
2A\	2c\	1a	1r
[2D\	[2A/	.	.
=75	=75	=75	=75
4D\]	4A/]	2a\	1dd
4E\	4G/	.	.
4F\	4F/	1a	.
4G\	4E/	.	.
1A	1D	.	2dd\
.	.	2a\	[2dd\
=76	=76	=76	=76
2r	2G/	2g\	2dd\]
2A\	2D/	2.f\	2dd\
2F\	2A/	.	2cc\
.	.	4e\	.
2G\	2B-\	[2d\	[2b-\
=77	=77	=77	=77
1E-	1G	2d\]	4b-\]
.	.	.	4a/
.	.	2c\	1g
1D	1A	1d	.
.	.	.	2f#i/
=78	=78	=78	=78
2r	0G	1r	1g
2.G\	.	.	.
.	.	1d	1r
4A\	.	.	.
[2B-\	.	.	.
=79	=79	=79	=79
4B-\]	1r	1d	1g
4A\	.	.	.
2B-\	.	.	.
1G	1E	1c	1g
=80	=80	=80	=80
1A	1D	1d	1f
1G	2d\	1B-	1g
.	[2d\	.	.
=81	=81	=81	=81
2r	2d\]	1A	1e
2A\	2c\	.	.
[1B-	1d	1r	1d
=82	=82	=82	=82
2B-\]	2d\	1d	1r
2.G\	2.B-\	.	.
.	.	2d\	1g
4F\	4A/	.	.
2G\	2B-\	2d\	.
=83	=83	=83	=83
1E	1G	1c	2g/
.	.	.	2g/
1D	1A	1d	1f
=84	=84	=84	=84
1GG	2G/	1B-	1g
.	4A/	.	.
.	4B-\	.	.
1r	1c	1A	1e
=85	=85	=85	=85
2G\	1B-	1d	1d
2G\	.	.	.
1C	1G	1e	1g
=86	=86	=86	=86
1r	2.F/	2d\	1a
.	.	2.c\	.
.	8E/L	.	.
.	8D/J	.	.
2C/	2E/	.	2g/
.	.	4B-\	.
2D\	2F/	[2A/	[2f/
=87	=87	=87	=87
1BB-	1D	2A/]	4f/]
.	.	.	4e/
.	.	2G/	1d
1AA	1E	[1A	.
.	.	.	2c#i/
=88	=88	=88	=88
1r	0D	1A]	0d
1A	.	1r	.
=89	=89	=89	=89
1B-	2r	0d	1r
.	1G	.	.
[1B-	.	.	[1g
.	2A/	.	.
=90	=90	=90	=90
2B-\]	2B-\	2d\	1g]
2A\	2c\	4e\	.
.	.	4f\	.
1G	1d	[1g	2g/
.	.	.	4a/
.	.	.	4b-\
=91	=91	=91	=91
2C/	2c\	2g\]	1.cc
1F	1A	2.f\	.
.	.	4e\	.
2G\	2B-\	[2d\	[2b-\
=92	=92	=92	=92
1E-	1G	2d\]	4b-\]
.	.	.	4a/
.	.	2c\	1g
1D	1A	1d	.
.	.	.	2f#i/
=93	=93	=93	=93
2r	1G	1r	1g
2G\	.	.	.
2.F\	2r	1a	1r
.	[2d\	.	.
4E\	.	.	.
=94	=94	=94	=94
1D	4d\]	1a	1dd
.	4e\	.	.
.	2.f\	.	.
1D	.	1d	1dd
.	4e\	.	.
.	4d\	.	.
.	4c\	.	.
=95	=95	=95	=95
2G\	2B-\	1r	1g
2B-\	2G/	.	.
2A\	2c\	1a	1r
[2D\	[2A/	.	.
=96	=96	=96	=96
4D\]	4A/]	1a	1dd
4E\	4G/	.	.
4F\	4F/	.	.
4G\	4E/	.	.
1A	1D	1a	1dd
=97	=97	=97	=97
2r	2G/	2g\	1dd
2A\	2D/	2.f\	.
2F\	2A/	.	2cc\
.	.	4e\	.
2G\	2B-\	[2d\	[2b-\
=98	=98	=98	=98
1E-	1G	2d\]	4b-\]
.	.	.	4a/
.	.	2c\	1g
1D	1A	[1dl	.
.	.	.	2f#i/
=99	=99	=99	=99
0GGl	0Gl	0d]	0gl
!!LO:LB:i:g=z
=100||	=100||	=100||	=100||
*>C	*>C	*>C	*>C
*clefF4	*clefGv2	*clefGv2	*clefG2
*k[b-]	*k[b-]	*k[b-]	*k[b-]
*M2/1	*M2/1	*M2/1	*M2/1
*met(C|)	*met(C|)	*met(C|)	*met(C|)
!!section: Et resurrexit
!!!OMD: Et resurrexit
[0D	0A	0d	0r
=101	=101	=101	=101
0D]	1B-	1.d	0r
.	1A	.	.
.	.	4c\	.
.	.	4B-\	.
=102	=102	=102	=102
1D	1.d	1A	0r
[1G	.	2B-\	.
.	2c\	2c\	.
=103	=103	=103	=103
1G]	2B-\	2d\	0r
.	4A/	4c\	.
.	4G/	4B-\	.
1F	2A/	2c\	.
.	[2d\	[2A/	.
=104	=104	=104	=104
0E	2d\]	2A/]	0r
.	2c#i\	2G/	.
.	2c#i\	2G/	.
.	2Bni\	4F/	.
.	.	4G/	.
=105	=105	=105	=105
0D	[0d	2A/	1f
.	.	1F	.
.	.	.	[1a
.	.	[2f\	.
=106	=106	=106	=106
0r	0d]	2f\]	2a/]
.	.	2e\	2g/
.	.	2d\	2f/
.	.	4c\	4e/
.	.	4B-\	4d/
=107	=107	=107	=107
0A	0r	2c\	2e/
.	.	2d\	2f/
.	.	2e\	2e/
.	.	[2f\	[2a/
=108	=108	=108	=108
1A	0r	2f\]	2a/]
.	.	4e\	4g/
.	.	4d\	4f/
1A	.	2.c#i\	1e
.	.	4Bni\	.
=109	=109	=109	=109
0D	1A	0d	1.d
.	[1F	.	.
.	.	.	4c/
.	.	.	4B-/
=110	=110	=110	=110
0D	2F/]	0r	1A
.	2G/	.	.
.	2A/	.	2r
.	2F/	.	2A/
=111	=111	=111	=111
1r	1G	0r	1B-
[1A	2F/	.	2.c/
.	[2A/	.	.
.	.	.	4d/
=112	=112	=112	=112
1A]	4A/]	0r	2e/
.	4G/	.	.
.	4F/	.	2.f/
.	4E/	.	.
1A	1D	.	.
.	.	.	4g/
.	.	.	2a/
=113	=113	=113	=113
1A	1D	0r	2.f/
.	.	.	4e/
[1G	2d\	.	1g
.	[2B-\	.	.
=114	=114	=114	=114
2G\]	2B-\]	0r	2e/
2F\	4A/	.	4d/
.	4G/	.	4e/
1D	[1A	.	2f/
.	.	.	[2d/
=115	=115	=115	=115
0E	2A/]	0r	2d/]
.	4G/	.	2c#i/
.	4F/	.	.
.	1G	.	2c#i/
.	.	.	4Bni/
.	.	.	4c#i/
=116	=116	=116	=116
[0D	1.A	1d	0d
.	.	2A/	.
.	[2B-\	[2d\	.
=117	=117	=117	=117
0D]	2B-\]	2d\]	1r
.	4A/	4c\	.
.	4G/	4B-\	.
.	2.F#i/	1A	1a
.	4E/	.	.
=118	=118	=118	=118
0r	1G	2r	1.b-
.	.	1G	.
.	2r	.	.
.	[2F/	[2A/	[2cc\
=119	=119	=119	=119
0r	4F/]	4A/]	4cc\]
.	4G/	4B-\	4b-\
.	2A/	2c\	4a/
.	.	.	4g/
.	2.D/	2.d\	2.f/
.	4E/	4c\	4g/
=120	=120	=120	=120
0r	2F/	2A/	2a/
.	4G/	4B-\	2.d/
.	4A/	4c\	.
.	4B-\	2.d\	.
.	4c\	.	4e/
.	[2d\	.	4f/
.	.	4e\	4g/
=121	=121	=121	=121
0r	4d\]	2f\	2a/
.	4c\	.	.
.	2B-\	1d	1g
.	1A	.	.
.	.	2c\	2f#i/
=122	=122	=122	=122
1r	[0G	1d	0g
1G	.	2r	.
.	.	[2G/	.
=123	=123	=123	=123
1.C	0G]	2G/]	0r
.	.	1c	.
2BB-/	.	2d\	.
=124	=124	=124	=124
[0AA	0r	2e\	0cc
.	.	2.c\	.
.	.	4d\	.
.	.	[2e\	.
=125	=125	=125	=125
1AA]	0r	2e\]	1cc
.	.	2f\	.
[1GG	.	[1g	[1b-
=126	=126	=126	=126
0GG]	0r	2g\]	1b-]
.	.	4f\	.
.	.	4e\	.
.	.	1d	1b-
=127	=127	=127	=127
1AA	0r	1c	1cc
2BB-/	.	2d\	2b-\
[2C/	.	[2e\	[2g/
=128	=128	=128	=128
4C/]	0r	4e\]	2g/]
4BB-/	.	4d\	.
2GG/	.	1g	2b-\
1D	.	.	1a
.	.	2f#i\	.
=129	=129	=129	=129
2r	1G	1g	0g
2.E\	.	.	.
.	2.E/	1r	.
4F\	.	.	.
2G\	.	.	.
.	4F/	.	.
=130	=130	=130	=130
2C/	2G/	[0g	0r
2.E\	2C/	.	.
.	2.E/	.	.
4F\	.	.	.
[2G\	.	.	.
.	4F/	.	.
=131	=131	=131	=131
4G\]	1G	1g]	0r
4A\	.	.	.
2B-\	.	.	.
2A\	[1D	[1f	.
[2d\	.	.	.
=132	=132	=132	=132
4d\]	1D]	1f]	0r
4c\	.	.	.
2B-\	.	.	.
1A	1D	1f	.
=133	=133	=133	=133
1G	1E	1g	1r
1r	1C	1e	1G
=134	=134	=134	=134
0GG	[0G	0d	1B-
.	.	.	2B-/
.	.	.	[2d/
=135	=135	=135	=135
1GG	0G]	1r	4d/]
.	.	.	4c/
.	.	.	4B-/
.	.	.	4A/
1GG	.	1g	1B-
=136	=136	=136	=136
1D	1F	0a	2.A/
.	.	.	4B-/
2.AA/	1A	.	2c/
.	.	.	2d/
4BB-/	.	.	.
=137	=137	=137	=137
1C	1r	1g	1e
1D	1A	1f	[1d
=138	=138	=138	=138
0AA	2A/	0e	2d/]
.	4G/	.	4c#i/
.	4F/	.	4Bni/
.	1E	.	1c#i
=139	=139	=139	=139
0D	1.F	0d	1.d
.	2D/	.	[2A/
=140	=140	=140	=140
0r	0D	1r	2A/]
.	.	.	2.d/
.	.	1A	.
.	.	.	4c/
.	.	.	4d/
.	.	.	4e/
=141	=141	=141	=141
0r	0D	2.d\	2.f/
.	.	4e\	4g/
.	.	2f\	2a/
.	.	[2d\	[2b-\
=142	=142	=142	=142
0r	1D	4d\]	2b-\]
.	.	4c\	.
.	.	2B-\	4a/
.	.	.	4g/
.	1D	1A	2.f#i/
.	.	.	4e/
=143	=143	=143	=143
0r	0G	2G/	0g
.	.	2.B-\	.
.	.	4c\	.
.	.	[2d\	.
=144	=144	=144	=144
0r	1G	2d\]	1r
.	.	2e-i\	.
.	1F	2d\	1a
.	.	4eni\	.
.	.	4f\	.
=145	=145	=145	=145
0r	0E	4g\	1g
.	.	4f\	.
.	.	4e\	.
.	.	4d\	.
.	.	2.c#i\	4g/
.	.	.	4f/
.	.	.	4e/
.	.	4Bni\	4d/
=146	=146	=146	=146
1r	0D	1d	1.f
1A	.	1f	.
.	.	.	4e/
.	.	.	4d/
=147	=147	=147	=147
1A	1r	1e	1c
1A	1A	1e	1c
=148	=148	=148	=148
0D	1A	1d	1d
.	1A	1r	[1f
=149	=149	=149	=149
1r	0D	1.d	2f/]
.	.	.	2e/
[1A	.	.	2f/
.	.	4c\	2g/
.	.	4B-\	.
=150	=150	=150	=150
2A\]	1r	0c	1.a
2G\	.	.	.
2F\	[1A	.	.
4E\	.	.	4g/
4D\	.	.	4f/
=151	=151	=151	=151
2C/	1A]	0r	2e/
1D	.	.	2d/
.	1A	.	1e
2C#i/	.	.	.
=152	=152	=152	=152
0D	0A	1.F	1.d
.	.	2G/	4c/
.	.	.	4B-/
=153	=153	=153	=153
1.AA	1A	2.A/	2c/
.	.	.	2d/
.	.	4B-\	.
.	1A	1c	1e
4BB-/	.	.	.
4C/	.	.	.
=154	=154	=154	=154
1D	1A	2F/	1f
.	.	4G/	.
.	.	4A/	.
1GG	[1G	1B-	2.g/
.	.	.	4f/
=155	=155	=155	=155
1C	1G]	1c	2e/
.	.	.	2d/
1D	1F	[1A	[1d
=156	=156	=156	=156
0AA	0E	2A/]	2d/]
.	.	2G/	2c#i/
.	.	1A	2c#i/
.	.	.	4Bni/
.	.	.	4c#i/
=157	=157	=157	=157
1r	[0D	1F	0d
1BB-	.	1F	.
=158	=158	=158	=158
2BB-/	0D]	0F	1r
2C/	.	.	.
1D	.	.	1A
=159	=159	=159	=159
0GG	1r	1.G	1B-
.	1G	.	1B-
.	.	4A/	.
.	.	4B-\	.
=160	=160	=160	=160
0r	2F/	1c	2A/
.	2.A/	.	2.c/
.	.	1F	.
.	4G/	.	4B-/
.	4F/	.	4A/
.	4E/	.	4G/
=161	=161	=161	=161
1r	2G/	2r	2B-/
.	2A/	2.F/	2c/
1D	1F	.	1A
.	.	4G/	.
.	.	2A/	.
=162	=162	=162	=162
2GG/	1G	2B-\	2r
1C	.	1c	2.G/
.	2r	.	.
.	.	.	4A/
2BB-/	[2D/	[2d\	2B-/
=163	=163	=163	=163
1D	4D/]	4d\]	2A/
.	4E/	4c\	.
.	2F/	2A/	2.d/
1r	2G/	2B-\	.
.	.	.	4e/
.	[2A/	[2c\	2f/
=164	=164	=164	=164
1r	2A/]	2c\]	2e/
.	2B-\	2d\	2.g/
2r	2c\	4e\	.
.	.	4f\	4a/
[2G\	[2d\	[2g\	2b-\
=165	=165	=165	=165
2G\]	4d\]	2g\]	2a/
.	4c\	.	.
2F\	2A/	2a\	2.cc\
2A\	2.c\	2e\	.
.	.	.	4b-\
[2F\	.	[2f\	4a/
.	4B-\	.	4g/
=166	=166	=166	=166
4F\]	4A/	2f\]	1cc
4G\	4G/	.	.
2A\	2c\	2e\	.
2G\	1d	2g\	2.b-\
2D\	.	[2f\	.
.	.	.	8a/L
.	.	.	8b-/J
=167	=167	=167	=167
2F\	2c\	4f\]	4a/
.	.	4e\	4g/
2G\	2B-\	2.d\	1g
1D	1A	.	.
.	.	4c\	.
.	.	2A/	2f#i/
=168	=168	=168	=168
[0GGl	[0Gl	1.B-	[0gl
.	.	2c\	.
=169	=169	=169	=169
0GG]	0G]	0dl	0g]
!!LO:LB:i:g=z
=170||	=170||	=170||	=170||
*>D	*>D	*>D	*>D
*clefF4	*clefGv2	*clefGv2	*clefG2
*k[b-]	*k[b-]	*k[b-]	*k[b-]
*M2/1	*M2/1	*M2/1	*M2/1
*met(C|)	*met(C|)	*met(O3/2)	*met(C|)
!!primary-mensuration: met(C|)
!!section: Confiteor
!!!OMD: Confiteor
!	!	!LO:TX:X=-40:Z=17:t=MenCircle3over2	!
*	*	*rscale:3/2	*
1.GG	1G	0r	0g
.	4G/	.	.
.	4F/	.	.
4AA/	4E/	.	.
4BB-/	4D/	.	.
=171	=171	=171	=171
2C/	2E/	0r	1g
2.BB-/	1D	.	.
.	.	.	1g
4AA/	.	.	.
2GG/	[2G/	.	.
=172	=172	=172	=172
1AA	2G/]	0r	0cc
.	2F#i/	.	.
1AA	2F#i/	.	.
.	4E/	.	.
.	4F#i/	.	.
=173	=173	=173	=173
1GG	0G	3%4G	1.b-
1G	.	.	.
.	.	3%2G	.
.	.	.	4a/
.	.	.	4b-\
=174	=174	=174	=174
2F\	0r	3%4c	2a/
2.C/	.	.	2g/
.	.	.	[1g
4D\	.	.	.
.	.	3%2c	.
4E\	.	.	.
4F\	.	.	.
=175	=175	=175	=175
2G\	1d	3%2B-	2g/]
2.D\	.	.	4f#i/
.	.	3%4A	.
.	.	.	4e/
.	1d	.	1f#i
4C/	.	.	.
2D\	.	.	.
=176	=176	=176	=176
1.E-	2B-\	3%4.G	1g
.	1G	.	.
.	.	.	1r
4D\	4F/	.	.
4C/	4E/	.	.
=177	=177	=177	=177
2.BB-/	1F	3%4.r	1d
4AA/	.	.	.
[1GG	[1G	.	1d
=178	=178	=178	=178
0GG]	2G/]	3%2d	0G
.	2A/	.	.
.	.	3%4d	.
.	2.B-\	.	.
.	4c\	.	.
=179	=179	=179	=179
0GG	1.d	3%4.G	1g
.	.	.	1b-
.	[2G/	.	.
=180	=180	=180	=180
1r	2G/]	3%2r	2b-\
.	2A/	.	2cc\
.	.	3%2r	.
1G	1B-	.	2b-\
.	.	3%2d	.
.	.	.	4a/
.	.	.	4g/
=181	=181	=181	=181
0D	0A	3%2d	1.a
.	.	3%4d	.
.	.	.	2f/
=182	=182	=182	=182
3%2.DV	3%2.AV	3%2d	0f
.	.	3%4d	.
3E\	3G/	.	.
3%2FZ	3%2AZ	.	.
=183	=183	=183	=183
3%2GV	3%2B-V	3%2d	0r
3%4AZ	3%2A	3%4c	.
.	3%2FZ	.	.
=184	=184	=184	=184
3%2GV	3%2GV	3%2B-	1r
3%2.F#i	3%4DZ	3%4A	.
.	.	.	1a
3E\Z	.	.	.
*	*	*rscale:1	*
=185	=185	=185	=185
*	*	*M2/1	*
*	*	*met(C|)	*
1G	0d	0G	1.b-
1r	.	.	.
.	.	.	4a/
.	.	.	4g/
=186	=186	=186	=186
1G	0r	1g	1b-
2D\	.	2f\	2a/
[2E\	.	2e\	[2g/
=187	=187	=187	=187
4E\]	0r	2c\	2g/]
4D\	.	.	.
2C/	.	2e\	1cc
1G	.	1d	.
.	.	.	2bni\
=188	=188	=188	=188
1C	1G	[0c	0cc
1r	2.C/	.	.
.	4D/	.	.
=189	=189	=189	=189
2.C/	2E/	0c]	0r
.	2F/	.	.
4D\	.	.	.
2E\	2G/	.	.
2F\	2A/	.	.
=190	=190	=190	=190
2G\	2B-\	0r	3%4gV
4A\	4c\	.	.
4B-\	4d\	.	.
2c\	2e-i\	.	.
.	.	.	[3%2gZ
[2B-\	[2d\	.	.
=191	=191	=191	=191
2B-\]	2d\]	0r	3%2g]V
4A\	4c\	.	.
.	.	.	3%4fZ
4G\	4B-\	.	.
1A	1c	.	.
=192	=192	=192	=192
3%2GV	3%2dV	3%4gV	3%2gV
3%2C	3%2c	.	3%4eZ
3%2EZ	3%2GZ	[3%2gZ	.
=193	=193	=193	=193
3%2GV	3%2B-V	3%2g]V	0d
3%4DZ	3%4AZ	3%4fZ	.
=194	=194	=194	=194
3%2GV	3%2B-V	3%2gV	0r
3%4AZ	3%2.c	3%4eZ	.
.	6B-\	.	.
.	6c\Z	.	.
=195	=195	=195	=195
3%4DV	3%2dV	3%4dV	3%4dV
.	3%2A	.	.
3%2GZ	3%2B-Z	3%2rZ	[3%2eZ
=196	=196	=196	=196
3%4AV	3%4cV	0r	3%2e]V
.	.	.	3%2f
3%2GZ	3%2B-Z	.	3e/
.	.	.	3d/Z
=197	=197	=197	=197
3%2FV	3%2.AV	3%2dV	3%2.dV
3%4EZ	.	3%4eZ	.
.	6G/	.	3c#i/
.	6F/	.	.
.	3%2GZ	.	3c#i/
.	.	.	3Bni/Z
=198	=198	=198	=198
1D	3%2AV	3f\V	0d
.	.	3g\	.
.	3%2.F#i	3%4aZ	.
1r	.	.	.
.	3E/Z	.	.
=199	=199	=199	=199
[0GG	0G	3%2.gV	1.d
.	.	3f\	.
.	.	3e\	.
.	.	.	4e/
.	.	3d\Z	.
.	.	.	4f/
=200	=200	=200	=200
1GG]	0r	1d	1g
[1C	.	1G	4g/
.	.	.	4f/
.	.	.	4e/
.	.	.	4d/
=201	=201	=201	=201
*	*M2/1	*	*
*	*met(O3/2)	*	*
*	*rscale:3/2	*	*
!	!LO:TX:Z=8:X=-40:t=O3/2 mensuration	!	!
1C]	0G	1c	1e
1BB-	.	1d	1d
=202	=202	=202	=202
0AA	0c	2c\	1.e
.	.	2.A/	.
.	.	4B-\	.
.	.	2c\	2f/
=203	=203	=203	=203
2GG/	3%2B-	1d	2g/
1D	.	.	1f
.	3%4A	.	.
.	.	1r	.
4C/	.	.	4e/
4D\	.	.	4f/
=204	=204	=204	=204
2E\	0G	2r	1g
2.C/	.	2.G/	.
.	.	.	2r
4D\	.	4F/	.
4E\	.	4G/	2e/
4F\	.	4A/	.
=205	=205	=205	=205
1G	0r	1B-	2d/
.	.	.	4e/
.	.	.	4f/
1E	.	2G/	1g
.	.	[2g\	.
=206	=206	=206	=206
0D	3%2d	2g\]	1a
.	.	2f\	.
.	3%4d	.	.
.	.	2f\	1a
.	.	4e\	.
.	.	4f\	.
=207	=207	=207	=207
1E	0G	1g	1g
1G	.	2.d\	2r
.	.	.	[2d/
.	.	4e\	.
=208	=208	=208	=208
2F\	0r	2.f\	4d/]
.	.	.	4e/
2.D\	.	.	2.f/
.	.	4g\	.
.	.	1a	.
4E\	.	.	4e/
2F\	.	.	4d/
.	.	.	4c/
=209	=209	=209	=209
2G\	[0d	2g\	2B-/
2.B-\	.	2f\	2.d/
.	.	2.d\	.
4A\	.	.	4c/
2G\	.	.	2B-/
.	.	4e\	.
=210	=210	=210	=210
2F\	3%2d]	2f\	2A/
1G	.	2.d\	2G/
.	[3%4d	.	.
.	.	.	1A
.	.	4c\	.
2F#i\	.	2A/	.
=211	=211	=211	=211
3%4GV	3%4d]	3%4B-V	3%2GV
.	.	.	3%2.d
3%2FZ	[3%2d	3%2AZ	.
.	.	.	3e/Z
=212	=212	=212	=212
3%2DV	0d]	3%2AV	3%2fV
3%2.G	.	3%2G	3%2.g
.	.	[3%2gZ	.
3F\Z	.	.	3a/Z
=213	=213	=213	=213
3%2GV	3%2d	3%2g]V	3%2b-V
3%2A	3%4c	3%2e	3cc\
.	.	.	3b-\
3%2FZ	.	3%2fZ	3a/
.	.	.	3g/Z
=214	=214	=214	=214
3%2GV	3%2B-	0d	3%2.gV
3%4DZ	3%4A	.	.
.	.	.	3f#i/
.	.	.	3f#i/
.	.	.	3e/Z
=215	=215	=215	=215
[0GGl	[0Gl	3%2.B-V	[0gl
.	.	3G/	.
.	.	3B-\	.
.	.	3c\Z	.
=216	=216	=216	=216
0GG]	0G]	0dl	0g]
==	==	==	==
*-	*-	*-	*-
!!!RDF**kern: l=long note in original notation
!!!RDF**kern: i=editorial accidental
!!!RDF**kern: V=start of tuplet marker
!!!RDF**kern: Z=end of tuplet marker
!!!ENC:	Complete Works (Melin)
!!!END:	2014/06/10/
!!!EED:	Jesse Rodin
!!!EEV:	2014/06/12/
!!!ONB:	Translated from MusicXML and edited on 2014/06/12/ by Craig Sapp
!!muse2ps: T^@{OPR}^u^@{ONM}{. }@{OTL}^C^@{COM}^i2I150v85,85,85,150c150
